src/status/22/flameshot.svg

<svg width="22" height="22" viewBox="0 0 22 22" xmlns="http://www.w3.org/2000/svg">
 <path transform="scale(1.375)" d="m2.857955 15.042614c-0.642046-0.892046-1.360796-2.193182-1.647728-2.982955-0.284091-0.792614-0.335227-1.116477-0.360795-1.676136-0.034091-0.778409 0.105113-1.252841 0.536932-1.818182 0.823863-1.076705 1.542613-2.417614 1.943181-3.622159 0.326705-0.980114 0.491478-2.039773 0.431819-2.752841-0.014205-0.176136-0.017046-0.321023 0-0.321023 0.039772 0 0.713068 1.051137 0.943181 1.474432 0.84091 1.565341 1.193182 2.798295 1.144887 4.022727-0.025568 0.625-0.119318 1.045455-0.340909 1.511364-0.21875 0.465909-0.289773 0.536932-0.75 1.090909-0.954546 1.153409-1.565341 2.363636-1.744318 3.46875-0.082387 0.485795-0.0625 1.318182 0.039772 1.678977 0.034091 0.125 0.056818 0.232955 0.051137 0.238637-0.008523 0.008522-0.119319-0.133523-0.247159-0.3125zm0 0" fill="none" stroke="rgb(18.039216%, 20.392157%, 25.098041%)" stroke-linecap="round" stroke-linejoin="round" stroke-width="1.119"/>
 <path transform="scale(1.375)" d="m3.079545 15.056818c-0.088068-0.289773-0.102272-1.196023-0.025568-1.642045 0.176137-1.019887 0.707387-2.122159 1.505682-3.127841 0.178977-0.224432 0.423296-0.53125 0.545455-0.684659 0.269886-0.340909 0.556818-0.914773 0.673295-1.357955s0.153409-1.235795 0.085227-1.735795c-0.025568-0.198864-0.056818-0.389205-0.071022-0.420455-0.011364-0.03125 0.102272-0.130682 0.346591-0.278409 2.011363-1.215909 3.261363-2.977273 3.414772-4.8125l0.028409-0.352273 0.150569 0.477273c1.036931 3.241477 1.017045 6.025568-0.051137 7.579546-0.389204 0.568181-1 1.036931-1.744318 1.34659-1.377841 0.568182-2.386364 1.213069-3.221591 2.053978-0.832386 0.840909-1.357954 1.792613-1.528409 2.786932l-0.056818 0.332386zm0 0" fill="none" stroke="rgb(18.039216%, 20.392157%, 25.098041%)" stroke-linecap="round" stroke-linejoin="round" stroke-width="1.119"/>
 <path transform="scale(1.375)" d="m3.201705 15.048295c0-0.224431 0.227272-0.9375 0.428977-1.357954 0.732954-1.508523 2.088068-2.650568 4.252841-3.576705 0.599432-0.255681 0.883522-0.420454 1.215909-0.707386 0.676136-0.576705 1.136363-1.448864 1.323863-2.502841l0.068182-0.383523 0.519887-0.178977c0.954545-0.332386 1.892045-0.786932 2.505681-1.21875 0.613637-0.431818 1.400569-1.286932 1.568182-1.767045 0.028409-0.085228 0.059659-0.147728 0.068182-0.142046 0.022727 0.022727-0.153409 1.286932-0.258523 1.857955-0.633522 3.428977-1.909091 5.767045-3.619318 6.653409-0.46875 0.241477-0.849432 0.349432-1.53125 0.426136-2.946023 0.349432-5.161932 1.267046-6.235795 2.607955-0.130682 0.164772-0.255682 0.315341-0.272728 0.338068-0.017045 0.019886-0.03409 0-0.03409-0.048296zm0 0" fill="none" stroke="rgb(18.039216%, 20.392157%, 25.098041%)" stroke-linecap="round" stroke-linejoin="round" stroke-width="1.119"/>
</svg>

<svg xmlns="http://www.w3.org/2000/svg" xmlns:xlink="http://www.w3.org/1999/xlink" width="22" height="22" viewBox="0 0 22 22">
<path fill="none" stroke-width="1.119" stroke-linecap="round" stroke-linejoin="round" stroke="rgb(18.039216%, 20.392157%, 25.098041%)" stroke-opacity="1" stroke-miterlimit="4" d="M 2.857955 15.042614 C 2.215909 14.150568 1.497159 12.849432 1.210227 12.059659 C 0.926136 11.267045 0.875 10.943182 0.849432 10.383523 C 0.815341 9.605114 0.954545 9.130682 1.386364 8.565341 C 2.210227 7.488636 2.928977 6.147727 3.329545 4.943182 C 3.65625 3.963068 3.821023 2.903409 3.761364 2.190341 C 3.747159 2.014205 3.744318 1.869318 3.761364 1.869318 C 3.801136 1.869318 4.474432 2.920455 4.704545 3.34375 C 5.545455 4.909091 5.897727 6.142045 5.849432 7.366477 C 5.823864 7.991477 5.730114 8.411932 5.508523 8.877841 C 5.289773 9.34375 5.21875 9.414773 4.758523 9.96875 C 3.803977 11.122159 3.193182 12.332386 3.014205 13.4375 C 2.931818 13.923295 2.951705 14.755682 3.053977 15.116477 C 3.088068 15.241477 3.110795 15.349432 3.105114 15.355114 C 3.096591 15.363636 2.985795 15.221591 2.857955 15.042614 Z M 2.857955 15.042614 " transform="matrix(1.375, 0, 0, 1.375, 0, 0)"/>
<path fill="none" stroke-width="1.119" stroke-linecap="round" stroke-linejoin="round" stroke="rgb(18.039216%, 20.392157%, 25.098041%)" stroke-opacity="1" stroke-miterlimit="4" d="M 3.079545 15.056818 C 2.991477 14.767045 2.977273 13.860795 3.053977 13.414773 C 3.230114 12.394886 3.761364 11.292614 4.559659 10.286932 C 4.738636 10.0625 4.982955 9.755682 5.105114 9.602273 C 5.375 9.261364 5.661932 8.6875 5.778409 8.244318 C 5.894886 7.801136 5.931818 7.008523 5.863636 6.508523 C 5.838068 6.309659 5.806818 6.119318 5.792614 6.088068 C 5.78125 6.056818 5.894886 5.957386 6.139205 5.809659 C 8.150568 4.59375 9.400568 2.832386 9.553977 0.997159 L 9.582386 0.644886 L 9.732955 1.122159 C 10.769886 4.363636 10.75 7.147727 9.681818 8.701705 C 9.292614 9.269886 8.681818 9.738636 7.9375 10.048295 C 6.559659 10.616477 5.551136 11.261364 4.715909 12.102273 C 3.883523 12.943182 3.357955 13.894886 3.1875 14.889205 L 3.130682 15.221591 Z M 3.079545 15.056818 " transform="matrix(1.375, 0, 0, 1.375, 0, 0)"/>
<path fill="none" stroke-width="1.119" stroke-linecap="round" stroke-linejoin="round" stroke="rgb(18.039216%, 20.392157%, 25.098041%)" stroke-opacity="1" stroke-miterlimit="4" d="M 3.201705 15.048295 C 3.201705 14.823864 3.428977 14.110795 3.630682 13.690341 C 4.363636 12.181818 5.71875 11.039773 7.883523 10.113636 C 8.482955 9.857955 8.767045 9.693182 9.099432 9.40625 C 9.775568 8.829545 10.235795 7.957386 10.423295 6.903409 L 10.491477 6.519886 L 11.011364 6.340909 C 11.965909 6.008523 12.903409 5.553977 13.517045 5.122159 C 14.130682 4.690341 14.917614 3.835227 15.085227 3.355114 C 15.113636 3.269886 15.144886 3.207386 15.153409 3.213068 C 15.176136 3.235795 15 4.5 14.894886 5.071023 C 14.261364 8.5 12.985795 10.838068 11.275568 11.724432 C 10.806818 11.965909 10.426136 12.073864 9.744318 12.150568 C 6.798295 12.5 4.582386 13.417614 3.508523 14.758523 C 3.377841 14.923295 3.252841 15.073864 3.235795 15.096591 C 3.21875 15.116477 3.201705 15.096591 3.201705 15.048295 Z M 3.201705 15.048295 " transform="matrix(1.375, 0, 0, 1.375, 0, 0)"/>
</svg>
